_includes/icons/ios-globe.svg

<svg fill="#666" height="50" viewBox="0 0 50 50" width="50" xmlns="http://www.w3.org/2000/svg"><path d="m25 1.9199219c-12.734887 0-23.0800781 10.3451911-23.0800781 23.0800781s10.3451911 23.080078 23.0800781 23.080078 23.080078-10.345191 23.080078-23.080078-10.345191-23.0800781-23.080078-23.0800781zm-1 2.1171875v9.9335936c-2.56749-.060593-5.008555-.347681-7.259766-.818359.396393-1.200844.846869-2.316785 1.347657-3.3183596 1.652934-3.3058688 3.749395-5.3179346 5.912109-5.796875zm2 0c2.162714.4789404 4.259175 2.4910062 5.912109 5.796875.502387 1.0047726.95427 2.1248216 1.351563 3.3300776-2.248403.465975-4.692772.747315-7.263672.806641zm-6.828125.703125c-1.085394 1.1370501-2.053238 2.5596-2.873047 4.1992187-.571326 1.1426529-1.072462 2.4032569-1.509766 3.7480469-1.963126-.529221-3.738475-1.195139-5.2714839-1.96875 2.5799229-2.7960349 5.8934949-4.9007391 9.6542969-5.9785156zm11.65625 0c3.757164 1.0767337 7.067612 3.1787292 9.646484 5.9707036-1.510359.78773-3.283741 1.46116-5.257812 1.992187-.438444-1.350716-.942085-2.616591-1.515625-3.7636719-.819809-1.6396187-1.787653-3.0621686-2.873047-4.1992187zm10.955078 7.5332036c2.497116 3.289816 4.066388 7.323106 4.271485 11.726562h-9.041016c-.072986-3.357303-.502091-6.527157-1.236328-9.367188 2.243818-.607024 4.26622-1.402455 6.005859-2.359374zm-33.5781249.015624c1.7584581.93369 3.7842229 1.719728 6.0214839 2.326172-.736929 2.844437-1.1671 6.02067-1.240234 9.384766h-9.0410155c.2047731-4.396515 1.7695602-8.423922 4.2597656-11.710938zm7.9707029 2.796876c2.432343.517541 5.061364.825754 7.824219.886718v8.027344h-9.013672c.074397-3.212631.494415-6.237729 1.189453-8.914062zm17.652344.013671c.692963 2.672991 1.111276 5.693187 1.185547 8.900391h-9.013672v-8.027344c2.764457-.059263 5.396477-.360385 7.828125-.873047zm-29.8828125 10.900391h9.0410155c.072986 3.357303.502091 6.527156 1.236328 9.367188-2.243818.607024-4.2662197 1.402455-6.0058591 2.359374-2.4971163-3.289816-4.0663881-7.323106-4.2714844-11.726562zm11.0410155 0h9.013672v8.027344c-2.764457.059263-5.396477.360385-7.828125.873047-.692963-2.672991-1.111276-5.693187-1.185547-8.900391zm11.013672 0h9.013672c-.074397 3.212631-.494415 6.237729-1.189453 8.914062-2.432343-.517541-5.061364-.825754-7.824219-.886718zm11.013672 0h9.041016c-.204774 4.396515-1.769561 8.423922-4.259766 11.710938-1.758458-.93369-3.784223-1.719728-6.021484-2.326172.736929-2.844437 1.1671-6.02067 1.240234-9.384766zm-13.013672 10.029297v9.933594c-2.162714-.478941-4.259175-2.491007-5.912109-5.796875-.502387-1.004773-.95427-2.124822-1.351563-3.330078 2.248403-.465975 4.692772-.747315 7.263672-.806641zm2 0c2.56749.060593 5.008555.347681 7.259766.818359-.396393 1.200844-.846869 2.316784-1.347657 3.31836-1.652934 3.305868-3.749395 5.317934-5.912109 5.796875zm-11.216797 1.267578c.438444 1.350716.942085 2.616591 1.515625 3.763672.819809 1.639619 1.787653 3.062169 2.873047 4.199219-3.757164-1.076734-7.067612-3.17873-9.6464844-5.970704 1.5103594-.78773 3.2837414-1.46116 5.2578124-1.992187zm20.427735.015625c1.963126.529221 3.738475 1.195139 5.271484 1.96875-2.579923 2.796035-5.893495 4.900739-9.654297 5.978516 1.085394-1.13705 2.053238-2.5596 2.873047-4.199219.571326-1.142653 1.072462-2.403257 1.509766-3.748047z"/></svg>

<svg xmlns="http://www.w3.org/2000/svg" viewBox="0 0 50 50" width="50" height="50" fill="#666"><path style="line-height:normal;text-indent:0;text-align:start;text-decoration-line:none;text-decoration-style:solid;text-decoration-color:#000;text-transform:none;block-progression:tb;isolation:auto;mix-blend-mode:normal" d="M 25 1.9199219 C 12.265113 1.9199219 1.9199219 12.265113 1.9199219 25 C 1.9199219 37.734887 12.265113 48.080078 25 48.080078 C 37.734887 48.080078 48.080078 37.734887 48.080078 25 C 48.080078 12.265113 37.734887 1.9199219 25 1.9199219 z M 24 4.0371094 L 24 13.970703 C 21.43251 13.91011 18.991445 13.623022 16.740234 13.152344 C 17.136627 11.9515 17.587103 10.835559 18.087891 9.8339844 C 19.740825 6.5281156 21.837286 4.5160498 24 4.0371094 z M 26 4.0371094 C 28.162714 4.5160498 30.259175 6.5281156 31.912109 9.8339844 C 32.414496 10.838757 32.866379 11.958806 33.263672 13.164062 C 31.015269 13.630037 28.5709 13.911377 26 13.970703 L 26 4.0371094 z M 19.171875 4.7402344 C 18.086481 5.8772845 17.118637 7.2998344 16.298828 8.9394531 C 15.727502 10.082106 15.226366 11.34271 14.789062 12.6875 C 12.825936 12.158279 11.050587 11.492361 9.5175781 10.71875 C 12.097501 7.9227151 15.411073 5.8180109 19.171875 4.7402344 z M 30.828125 4.7402344 C 34.585289 5.8169681 37.895737 7.9189636 40.474609 10.710938 C 38.96425 11.498668 37.190868 12.172098 35.216797 12.703125 C 34.778353 11.352409 34.274712 10.086534 33.701172 8.9394531 C 32.881363 7.2998344 31.913519 5.8772845 30.828125 4.7402344 z M 41.783203 12.273438 C 44.280319 15.563254 45.849591 19.596544 46.054688 24 L 37.013672 24 C 36.940686 20.642697 36.511581 17.472843 35.777344 14.632812 C 38.021162 14.025788 40.043564 13.230357 41.783203 12.273438 z M 8.2050781 12.289062 C 9.9635362 13.222752 11.989301 14.00879 14.226562 14.615234 C 13.489633 17.459671 13.059462 20.635904 12.986328 24 L 3.9453125 24 C 4.1500856 19.603485 5.7148727 15.576078 8.2050781 12.289062 z M 16.175781 15.085938 C 18.608124 15.603479 21.237145 15.911692 24 15.972656 L 24 24 L 14.986328 24 C 15.060725 20.787369 15.480743 17.762271 16.175781 15.085938 z M 33.828125 15.099609 C 34.521088 17.7726 34.939401 20.792796 35.013672 24 L 26 24 L 26 15.972656 C 28.764457 15.913393 31.396477 15.612271 33.828125 15.099609 z M 3.9453125 26 L 12.986328 26 C 13.059314 29.357303 13.488419 32.527156 14.222656 35.367188 C 11.978838 35.974212 9.9564363 36.769643 8.2167969 37.726562 C 5.7196806 34.436746 4.1504088 30.403456 3.9453125 26 z M 14.986328 26 L 24 26 L 24 34.027344 C 21.235543 34.086607 18.603523 34.387729 16.171875 34.900391 C 15.478912 32.2274 15.060599 29.207204 14.986328 26 z M 26 26 L 35.013672 26 C 34.939275 29.212631 34.519257 32.237729 33.824219 34.914062 C 31.391876 34.396521 28.762855 34.088308 26 34.027344 L 26 26 z M 37.013672 26 L 46.054688 26 C 45.849914 30.396515 44.285127 34.423922 41.794922 37.710938 C 40.036464 36.777248 38.010699 35.99121 35.773438 35.384766 C 36.510367 32.540329 36.940538 29.364096 37.013672 26 z M 24 36.029297 L 24 45.962891 C 21.837286 45.48395 19.740825 43.471884 18.087891 40.166016 C 17.585504 39.161243 17.133621 38.041194 16.736328 36.835938 C 18.984731 36.369963 21.4291 36.088623 24 36.029297 z M 26 36.029297 C 28.56749 36.08989 31.008555 36.376978 33.259766 36.847656 C 32.863373 38.0485 32.412897 39.16444 31.912109 40.166016 C 30.259175 43.471884 28.162714 45.48395 26 45.962891 L 26 36.029297 z M 14.783203 37.296875 C 15.221647 38.647591 15.725288 39.913466 16.298828 41.060547 C 17.118637 42.700166 18.086481 44.122716 19.171875 45.259766 C 15.414711 44.183032 12.104263 42.081036 9.5253906 39.289062 C 11.03575 38.501332 12.809132 37.827902 14.783203 37.296875 z M 35.210938 37.3125 C 37.174064 37.841721 38.949413 38.507639 40.482422 39.28125 C 37.902499 42.077285 34.588927 44.181989 30.828125 45.259766 C 31.913519 44.122716 32.881363 42.700166 33.701172 41.060547 C 34.272498 39.917894 34.773634 38.65729 35.210938 37.3125 z"/></svg>
